icons/svg/amenity/public_building2.svg

<?xml version="1.0" encoding="UTF-8" standalone="no"?>
<!-- Created with Inkscape (http://www.inkscape.org/) -->

<svg
   xmlns:dc="http://purl.org/dc/elements/1.1/"
   xmlns:cc="http://creativecommons.org/ns#"
   xmlns:rdf="http://www.w3.org/1999/02/22-rdf-syntax-ns#"
   xmlns:svg="http://www.w3.org/2000/svg"
   xmlns="http://www.w3.org/2000/svg"
   xmlns:sodipodi="http://sodipodi.sourceforge.net/DTD/sodipodi-0.dtd"
   xmlns:inkscape="http://www.inkscape.org/namespaces/inkscape"
   version="1.0"
   width="580"
   height="580"
   id="svg2"
   sodipodi:version="0.32"
   inkscape:version="0.91 r"
   sodipodi:docname="public_building2.svg"
   inkscape:output_extension="org.inkscape.output.svg.inkscape">
  <metadata
     id="metadata2975">
    <rdf:RDF>
      <cc:Work
         rdf:about="">
        <dc:format>image/svg+xml</dc:format>
        <dc:type
           rdf:resource="http://purl.org/dc/dcmitype/StillImage" />
        <cc:license
           rdf:resource="http://web.resource.org/cc/PublicDomain" />
        <dc:language>en</dc:language>
        <dc:title />
      </cc:Work>
    </rdf:RDF>
  </metadata>
  <sodipodi:namedview
     inkscape:window-height="1004"
     inkscape:window-width="1920"
     inkscape:pageshadow="2"
     inkscape:pageopacity="0.0"
     guidetolerance="10.0"
     gridtolerance="10.0"
     objecttolerance="10.0"
     borderopacity="1.0"
     bordercolor="#666666"
     pagecolor="#ffffff"
     id="base"
     inkscape:zoom="0.92167714"
     inkscape:cx="441.30023"
     inkscape:cy="290.2875"
     inkscape:window-x="1680"
     inkscape:window-y="0"
     inkscape:current-layer="svg2"
     showgrid="false"
     inkscape:window-maximized="1" />
  <defs
     id="defs4">
    <inkscape:perspective
       sodipodi:type="inkscape:persp3d"
       inkscape:vp_x="0 : 290 : 1"
       inkscape:vp_y="0 : 1000 : 0"
       inkscape:vp_z="580 : 290 : 1"
       inkscape:persp3d-origin="290 : 193.33333 : 1"
       id="perspective2441" />
    <inkscape:perspective
       id="perspective3452"
       inkscape:persp3d-origin="30 : 20 : 1"
       inkscape:vp_z="60 : 30 : 1"
       inkscape:vp_y="0 : 1000 : 0"
       inkscape:vp_x="0 : 30 : 1"
       sodipodi:type="inkscape:persp3d" />
    <symbol
       viewBox="244.5 110 489 219.9"
       id="symbol-university">
      <path
         id="path4460"
         d="M79,43l57,119c0,0,21-96,104-96s124,106,124,106l43-133l82-17L0,17L79,43z" />
      <path
         id="path4462"
         d="M94,176l-21,39"
         stroke-width="20"
         stroke="#000000"
         fill="none" />
      <path
         id="path4464"
         d="M300,19c0,10.5-22.6,19-50.5,19S199,29.5,199,19s22.6-19,50.5-19S300,8.5,300,19z" />
      <path
         id="path4466"
         d="M112,216l-16-38L64,88c0,0-9-8-4-35s16-24,16-24"
         stroke-width="20"
         stroke="#000000"
         ill="none" />
    </symbol>
    <inkscape:perspective
       id="perspective4471"
       inkscape:persp3d-origin="372.04724 : 350.78739 : 1"
       inkscape:vp_z="744.09448 : 526.18109 : 1"
       inkscape:vp_y="0 : 1000 : 0"
       inkscape:vp_x="0 : 526.18109 : 1"
       sodipodi:type="inkscape:persp3d" />
    <inkscape:perspective
       id="perspective4668"
       inkscape:persp3d-origin="6 : 4 : 1"
       inkscape:vp_z="12 : 6 : 1"
       inkscape:vp_y="0 : 1000 : 0"
       inkscape:vp_x="0 : 6 : 1"
       sodipodi:type="inkscape:persp3d" />
    <inkscape:perspective
       id="perspective4904"
       inkscape:persp3d-origin="16 : 10.666667 : 1"
       inkscape:vp_z="32 : 16 : 1"
       inkscape:vp_y="0 : 1000 : 0"
       inkscape:vp_x="0 : 16 : 1"
       sodipodi:type="inkscape:persp3d" />
  </defs>
  <g
     id="g1327">
    <path
       d="M 66.275,1.768 C 24.94,1.768 1.704,23.139 1.704,66.804 L 1.704,516.927 C 1.704,557.771 22.599,579.156 63.896,579.156 L 515.92,579.156 C 557.227,579.156 578.149,558.841 578.149,516.927 L 578.149,66.804 C 578.149,24.203 557.227,1.768 514.628,1.768 C 514.624,1.768 66.133,1.625 66.275,1.768 z "
       style="fill:#111;stroke:#eee;stroke-width:3.40799999"
       id="path1329" />
  </g>
  <g
     id="g4372"
     transform="translate(-166.49217,52.019299)" />
  <path
     style="font-style:normal;font-variant:normal;font-weight:normal;font-stretch:normal;font-size:40px;line-height:125%;font-family:NPSPICT3;-inkscape-font-specification:NPSPICT3;text-align:start;writing-mode:lr-tb;text-anchor:start;fill:#ffffff;fill-opacity:1;stroke:none"
     d="m 119.62525,294.61587 c -11.19648,4.2e-4 -20.948965,4.05756 -29.24258,12.14164 -8.292862,8.08487 -12.439401,17.90737 -12.439797,29.50866 3.92e-4,11.61469 4.146936,21.49056 12.439797,29.57471 8.293614,8.08482 18.0461,12.108 29.24258,12.10767 0.41283,10e-6 0.81635,-0.0238 1.22473,-0.034 0.41302,0.0105 0.83925,0.0341 1.25681,0.034 11.19648,3.3e-4 20.91688,-4.02285 29.2105,-12.10767 8.29286,-8.08415 12.43941,-17.96001 12.4398,-29.57471 -3.8e-4,-11.60129 -4.14694,-21.42379 -12.4398,-29.50866 -8.29362,-8.08408 -18.01402,-12.14122 -29.2105,-12.14164 -0.41744,2e-5 -0.84392,0.0235 -1.25681,0.034 -0.40826,-0.0102 -0.81202,-0.034 -1.22473,-0.034 z m 343.96642,0 c -11.19648,4.2e-4 -20.94897,4.05756 -29.24258,12.14164 -8.29287,8.08487 -12.4394,17.90737 -12.4398,29.50866 3.9e-4,11.61469 4.14693,21.49056 12.4398,29.57471 8.29361,8.08482 18.0461,12.108 29.24258,12.10767 0.41282,10e-6 0.81635,-0.0238 1.22473,-0.034 0.41302,0.0105 0.83925,0.0341 1.25681,0.034 11.19647,3.3e-4 20.91688,-4.02285 29.2105,-12.10767 8.29285,-8.08415 12.43941,-17.96001 12.43979,-29.57471 -3.7e-4,-11.60129 -4.14694,-21.42379 -12.43979,-29.50866 -8.29362,-8.08408 -18.01403,-12.14122 -29.2105,-12.14164 -0.41745,2e-5 -0.84393,0.0235 -1.25681,0.034 -0.40826,-0.0102 -0.81202,-0.034 -1.22473,-0.034 z M 87.901126,387.27651 c -2.517992,6e-5 -4.784998,0.28988 -6.829433,0.83599 a 35.518095,35.518095 0 0 0 -4.10068,-0.1623 35.518095,35.518095 0 0 0 -34.654797,36.32866 l 0.739745,82.83071 a 35.518095,35.518095 0 0 0 24.962626,34.0396 l 0,10.90558 0,3.14392 52.831393,-1.55497 52.86348,1.55497 0,-3.14392 0,-12.44545 a 35.518095,35.518095 0 0 0 20.8242,-33.13569 l -0.74163,-82.8307 a 35.518095,35.518095 0 0 0 -33.43951,-35.61722 c -1.96417,-0.49254 -4.13244,-0.74912 -6.52371,-0.74918 l -65.931684,0 z m 343.966424,0 c -2.518,6e-5 -4.785,0.28988 -6.82944,0.83599 a 35.518095,35.518095 0 0 0 -4.10068,-0.1623 35.518095,35.518095 0 0 0 -34.6548,36.32866 l 0.73974,82.83071 a 35.518095,35.518095 0 0 0 24.96263,34.0396 l 0,10.90558 0,3.14392 52.8314,-1.55497 52.86347,1.55497 0,-3.14392 0,-12.44545 a 35.518095,35.518095 0 0 0 20.8242,-33.13569 l -0.74162,-82.8307 a 35.518095,35.518095 0 0 0 -33.43951,-35.61722 c -1.96417,-0.49254 -4.13245,-0.74912 -6.52372,-0.74918 l -65.93167,0 z"
     id="path8791"
     inkscape:connector-curvature="0" />
  <path
     style="font-size:12px;opacity:0.90399996;fill:#ffffff;fill-opacity:1;fill-rule:evenodd;stroke:none;stroke-width:0.93039989;stroke-opacity:1"
     d="m 288.75327,38.95088 -182.52458,138.96641 36.50416,0 0,101.14884 c 8.17848,3.00825 15.73286,7.74365 22.03761,13.88909 a 19.276487,19.276487 0 0 0 0.002,0.002 c 11.58064,11.2902 18.25911,27.11535 18.25963,43.30906 -4.1e-4,12.28425 -3.83779,24.35927 -10.74707,34.41891 15.24073,4.4139 28.35251,15.88306 35.3568,30.16349 l 5.13671,0 0,-206.95692 157.08262,0 0,206.95692 2.64007,0 c 7.772,-15.71433 22.95608,-28.00702 40.16702,-31.26367 -6.44687,-9.83655 -10.03334,-21.47524 -10.03373,-33.31873 5.5e-4,-16.19364 6.67896,-32.01884 18.25962,-43.30906 a 19.276487,19.276487 0 0 0 0.002,-0.002 c 4.14539,-4.04067 8.8326,-7.46275 13.87588,-10.19414 l 0,-104.84379 36.50605,0 L 288.75327,38.95088 Z"
     id="path645"
     inkscape:connector-curvature="0" />
  <path
     style="fill:#ffffff;fill-opacity:1;stroke:none;stroke-width:8.83197498;stroke-linecap:round;stroke-linejoin:round;stroke-miterlimit:4;stroke-dasharray:none;stroke-opacity:1"
     d="m 292.65624,268.17565 c -22.50317,29.31632 -45.02118,58.6191 -67.50682,87.95041 l 37.75257,0 0,86.49924 -37.75257,0 c 22.48564,29.33131 45.00365,58.6341 67.50682,87.95042 21.1756,-27.70647 42.34349,-55.42018 63.52313,-83.1232 l 2.35801,-3.07976 -35.81806,0 c -0.13846,-14.999 -0.29548,-29.99717 -0.43895,-44.99614 0.14347,-14.99895 0.30049,-29.99713 0.43895,-44.99613 l 35.81806,0 -2.35801,-3.07975 c -21.17964,-27.70305 -42.34753,-55.41862 -63.52313,-83.12509 z"
     id="path7850"
     inkscape:connector-curvature="0" />
  <path
     style="opacity:0.14;fill:#ffffff;fill-opacity:1;stroke:none;stroke-width:27.80186081;stroke-linecap:round;stroke-linejoin:round;stroke-miterlimit:4;stroke-dasharray:none;stroke-opacity:1"
     d="m 212.77913,397.02319 c 52.36096,1.2142 104.7219,2.4284 157.08285,3.6426 0,-68.92442 0,-137.84883 0,-206.77325 -52.36095,0 -104.72189,0 -157.08285,0 0,67.71021 0,135.42044 0,203.13065 z"
     id="path7856"
     inkscape:connector-curvature="0" />
  <path
     style="color:#000000;font-style:normal;font-variant:normal;font-weight:normal;font-stretch:normal;font-size:12px;line-height:normal;font-family:sans-serif;text-indent:0;text-align:start;text-decoration:none;text-decoration-line:none;text-decoration-style:solid;text-decoration-color:#000000;letter-spacing:normal;word-spacing:normal;text-transform:none;direction:ltr;block-progression:tb;writing-mode:lr-tb;baseline-shift:baseline;text-anchor:start;white-space:normal;clip-rule:nonzero;display:inline;overflow:visible;visibility:visible;opacity:1;isolation:auto;mix-blend-mode:normal;color-interpolation:sRGB;color-interpolation-filters:linearRGB;solid-color:#000000;solid-opacity:1;fill:#ffffff;fill-opacity:1;fill-rule:nonzero;stroke:none;stroke-width:14.98928642;stroke-linecap:butt;stroke-linejoin:round;stroke-miterlimit:4;stroke-dasharray:none;stroke-dashoffset:0;stroke-opacity:1;color-rendering:auto;image-rendering:auto;shape-rendering:auto;text-rendering:auto;enable-background:accumulate"
     d="m 288.75327,24.467349 a 7.2420319,7.2420319 0 0 0 -4.36299,1.553087 l -0.0245,-0.07171 -182.52269,138.964534 a 7.2420319,7.2420319 0 0 0 4.38563,13.00403 l 29.26334,0 0,98.98999 c 5.02826,1.17052 9.89807,2.97648 14.48353,5.36315 l 0,-111.59396 a 7.2420319,7.2420319 0 0 0 -7.24271,-7.2427 l -15.03645,0 161.05687,-122.622205 161.05687,122.622205 -15.03834,0 a 7.2420319,7.2420319 0 0 0 -7.24083,7.2427 l 0,116.66462 c 4.46384,-3.2762 9.3463,-5.93395 14.48354,-7.91641 l 0,-101.50739 29.26334,0 a 7.2420319,7.2420319 0 0 0 4.38563,-13.00403 L 293.1389,25.948726 l -0.004,0.0094 a 7.2420319,7.2420319 0 0 0 -4.38186,-1.490812 z M 203.40705,393.60775 c 3.06909,4.473 5.51552,9.35246 7.17667,14.48164 l 41.66538,0 75.51252,0 41.7673,0 c 1.67948,-5.13079 4.15093,-10.00992 7.24082,-14.48164 l -49.00812,0 -75.51252,0 -48.84205,0 z"
     id="path3198-8"
     inkscape:connector-curvature="0" />
</svg>

<svg width="580" height="580" viewBox="0 0 580 580" fill="none" xmlns="http://www.w3.org/2000/svg">
<g clip-path="url(#clip0)">
<path d="M66.275 1.7679C24.94 1.7679 1.704 23.1389 1.704 66.8039V516.927C1.704 557.771 22.599 579.156 63.896 579.156H515.92C557.227 579.156 578.149 558.841 578.149 516.927V66.8039C578.149 24.2029 557.227 1.7679 514.628 1.7679C514.624 1.7679 66.133 1.6249 66.275 1.7679Z" fill="#111111" stroke="#EEEEEE" stroke-width="3.408"/>
<path d="M119.625 294.616C108.429 294.616 98.6763 298.674 90.3827 306.758C82.0898 314.842 77.9433 324.665 77.9429 336.266C77.9433 347.881 82.0898 357.757 90.3827 365.841C98.6763 373.926 108.429 377.949 119.625 377.949C120.038 377.949 120.442 377.925 120.85 377.915C121.263 377.925 121.689 377.949 122.107 377.949C133.303 377.949 143.024 373.926 151.317 365.841C159.61 357.757 163.757 347.881 163.757 336.266C163.757 324.665 159.61 314.842 151.317 306.758C143.024 298.674 133.303 294.616 122.107 294.616C121.689 294.616 121.263 294.639 120.85 294.65C120.442 294.64 120.038 294.616 119.625 294.616ZM463.592 294.616C452.395 294.616 442.643 298.674 434.349 306.758C426.056 314.842 421.91 324.665 421.909 336.266C421.91 347.881 426.056 357.757 434.349 365.841C442.643 373.926 452.395 377.949 463.592 377.949C464.004 377.949 464.408 377.925 464.816 377.915C465.229 377.925 465.656 377.949 466.073 377.949C477.27 377.949 486.99 373.926 495.284 365.841C503.577 357.757 507.723 347.881 507.723 336.266C507.723 324.665 503.577 314.842 495.284 306.758C486.99 298.674 477.27 294.616 466.073 294.616C465.656 294.616 465.229 294.639 464.816 294.65C464.408 294.64 464.004 294.616 463.592 294.616ZM87.9011 387.277C85.3831 387.277 83.1161 387.566 81.0717 388.113C79.7091 387.979 78.3399 387.925 76.971 387.95C67.5595 388.177 58.6228 392.13 52.1246 398.942C45.6265 405.754 42.0986 414.867 42.3162 424.279L43.056 507.11C43.029 514.707 45.439 522.113 49.932 528.24C54.425 534.367 60.7642 538.891 68.0186 541.149V552.055V555.199L120.85 553.644L173.713 555.199V552.055V539.609C180.048 536.733 185.399 532.059 189.101 526.168C192.803 520.278 194.693 513.429 194.538 506.474L193.796 423.643C193.837 414.555 190.393 405.797 184.173 399.172C177.952 392.547 169.429 388.558 160.357 388.026C158.392 387.533 156.224 387.277 153.833 387.277H87.9011V387.277ZM431.868 387.277C429.35 387.277 427.083 387.566 425.038 388.113C423.675 387.979 422.306 387.925 420.937 387.95C411.526 388.177 402.589 392.13 396.091 398.942C389.593 405.754 386.065 414.867 386.283 424.279L387.022 507.11C386.995 514.707 389.405 522.113 393.898 528.24C398.391 534.367 404.731 538.891 411.985 541.149V552.055V555.199L464.816 553.644L517.68 555.199V552.055V539.609C524.015 536.733 529.365 532.059 533.067 526.168C536.769 520.278 538.66 513.429 538.504 506.474L537.762 423.643C537.803 414.555 534.359 405.797 528.139 399.172C521.919 392.547 513.395 388.558 504.323 388.026C502.359 387.533 500.19 387.277 497.799 387.277H431.868V387.277Z" fill="white"/>
<path opacity="0.904" fill-rule="evenodd" clip-rule="evenodd" d="M288.753 38.9509L106.229 177.917H142.733V279.066C150.911 282.074 158.466 286.81 164.77 292.955C164.771 292.956 164.772 292.957 164.772 292.957C176.353 304.247 183.032 320.073 183.032 336.266C183.032 348.551 179.194 360.626 172.285 370.685C187.526 375.099 200.638 386.568 207.642 400.849H212.779V193.892H369.861V400.849H372.501C380.273 385.134 395.457 372.842 412.668 369.585C406.221 359.749 402.635 348.11 402.635 336.266C402.635 320.073 409.313 304.247 420.894 292.957C420.895 292.957 420.895 292.956 420.896 292.955C425.042 288.915 429.729 285.493 434.772 282.761V177.917H471.278L288.753 38.9509Z" fill="white"/>
<path d="M292.656 268.176C270.153 297.492 247.635 326.795 225.149 356.126H262.902V442.625H225.149C247.635 471.957 270.153 501.26 292.656 530.576C313.832 502.869 335 475.156 356.179 447.453L358.537 444.373H322.719C322.581 429.374 322.424 414.376 322.28 399.377C322.424 384.378 322.581 369.38 322.719 354.381H358.537L356.179 351.301C335 323.598 313.832 295.882 292.656 268.176Z" fill="white"/>
<path opacity="0.14" d="M212.779 397.023C265.14 398.237 317.501 399.452 369.862 400.666C369.862 331.741 369.862 262.817 369.862 193.893C317.501 193.893 265.14 193.893 212.779 193.893C212.779 261.603 212.779 329.313 212.779 397.023Z" fill="white"/>
<path d="M288.753 24.4673C287.168 24.4935 285.635 25.0391 284.39 26.0204L284.366 25.9487L101.843 164.913C100.637 165.831 99.7501 167.104 99.306 168.553C98.862 170.002 98.8836 171.554 99.3679 172.99C99.8521 174.425 100.775 175.673 102.005 176.557C103.236 177.441 104.713 177.917 106.229 177.917H135.492V276.907C140.52 278.078 145.39 279.884 149.976 282.27V170.676C149.976 169.725 149.788 168.783 149.424 167.905C149.061 167.026 148.527 166.227 147.854 165.555C147.182 164.882 146.383 164.349 145.505 163.985C144.626 163.621 143.684 163.434 142.733 163.434H127.696L288.753 40.8115L449.81 163.434H434.772C432.851 163.434 431.009 164.197 429.651 165.556C428.294 166.914 427.531 168.756 427.531 170.676V287.341C431.995 284.065 436.877 281.407 442.015 279.425V177.917H471.278C472.793 177.917 474.27 177.441 475.501 176.557C476.732 175.673 477.654 174.425 478.139 172.99C478.623 171.554 478.645 170.002 478.201 168.553C477.757 167.104 476.869 165.831 475.664 164.913L293.139 25.9487L293.135 25.9581C291.877 24.9952 290.337 24.4715 288.753 24.4673L288.753 24.4673ZM203.407 393.608C206.476 398.081 208.923 402.96 210.584 408.089H252.249H327.762H369.529C371.208 402.959 373.68 398.079 376.77 393.608H327.762H252.249H203.407V393.608Z" fill="white"/>
</g>
<defs>
<clipPath id="clip0">
<path d="M0 0H580V580H0V0Z" fill="white"/>
</clipPath>
</defs>
</svg>
